X:1
T:Fra tutte le pene
T:Fra tutte le pene
T:(Erste Komposition)
T:Ludvig van Beethoven
C:Ludvig van Beethoven
%%score [ 1 2 3 4 ]
L:1/8
Q:1/4=70
M:2/4
K:Bb
V:1 treble nm="Soprano" snm="S."
V:2 treble nm="Alto" snm="A."
V:3 treble-8 nm="Tenor" snm="T."
V:4 bass nm="Bass" snm="B."
V:1
"^Allegro" d | e2 d3/2 d/ | c B z d | e3 f/ g/ | g f z d | ed e d | d/c/ c z c | =Bc f e | %8
w: Fra|tut- te le|pe- ne v`è|pe- na mag-|gio- re? Son|pres- * so~al mio|be- * ne, so-|spi- * ro d`a-|
 e d z d | d2 _a3/2 d/ | f e z g | B2 A A | f3 ^f/g/ | B2 d3/2 c/ | (c2 B) d!fine! | d2 B3/2 G/ | %16
w: mo- re, e|dir- gli non|o- so: so-|spi- ro per|te, so- *|spi- ro per|te. * Mi|man- ca~il va-|
 D D z A | B2 c3/2 B/ | B A z d | f2 d3/2 =B/ | _A G z d | e2 e3/2 e/ | (e d2) d | =e2 e3/2 e/ | %24
w: lo- re per|tan- to sof-|fri- re; mi|man- ca l`ar-|di- re per|chie- der mer-|cè, * per|chie- der mer-|
 !fermata!f3!D.C.! |] %25
w: ce.|
V:2
 B | c2 B3/2 B/ | A B z B | B3 B/ B/ | B B z B | cB c B | B/A/ A z A | G2 G G | G G z G | %9
w: Fra|tu- te le|pe- ne v`è|pe- na mag-|gio- re? son|pres- * so~al mio|be- * ne, so-|spi- ro d`a-|mo- re, e|
 _A2 F3/2 F/ | _A G z G | F2 F F | (F B2) B | F2 F3/2 E/ | (E2 D) d | d2 B3/2 G/ | D D z ^F | %17
w: dir- gli non|o- so: so-|spi- ro per|te, * so-|spi- ro per|te. * Mi|man- ca~il va-|lo- re per|
 G2 A3/2 G/ | G ^F z2 | z F d3/2 =B/ | _A G z =B | c2 c3/2 c/ | (c B2) B | B2 B3/2 B/ | %24
w: tan- to sof-|fri- re;|mi manc l`ar-|di- re per|chie- der mer-|cè, * per|chie- der mer-|
 !fermata!A3 |] %25
w: ce.|
V:3
 f | f2 f3/2 f/ | e d z f | e3 d/ e/ | e d z f | f2 f f | f f z f | fe d e | c =B z _B | %9
w: Fra|tu- te le|pe- ne v`è|pe- na mag-|gio- re? son|pres- so~al mio|be- ne; so-|spi- * ro d`a-|mo- re, e|
 B2 B3/2 B/ | B B z e | d2 c c | B3 e | d2 B3/2 A/ | (A2 B) d | d2 B3/2 G/ | D D z d | d2 d3/2 d/ | %18
w: dir- gli non|o- so: so-|spi- ro per|te, so-|spi- ro per|te. * Mi|man- ca~il va-|lo- re per|tan- to sof-|
 d d z d | f2 d3/2 =B/ | _A G z g | g2 f3/2 f/ | f3 B | B2 c3/2 c/ | !fermata!c3 |] %25
w: fri- re; mi|man- ca l`ar-|di- re per|chie- der mer-|cè, per|chie- der mer-|ce.|
V:4
 B, | A,2 B,3/2 B,/ | F, B, z B, | G,3 F,/ E,/ | B, B,, z B, | A,B, A, B, | F, F, z F, | DC =B, C | %8
w: Fra|tu- te le|pe- ne v`è|pe- na mag-|gio- re? son|pres- * so~al mio|be- ne, so-|spi- * ro d`a-|
 G, G, z G, | F,2 B,,3/2 B,,/ | E, E, z E, | F,2 E, E, | D,3 E, | F,2 F,3/2 F,/ | (F,2 B,,) D | %15
w: mo- re, e|dir- gli non|o- so: so-|spi- ro per|te, so-|spi- ro per|te. * Mi|
 D2 B,3/2 G,/ | D, D, z D, | G,2 ^F,3/2 G,/ | D, D, z2 | z F, D3/2 =B,/ | _A, G, z G, | %21
w: man- ca~il va-|lo- re per|tan- to sof-|fri- re;|mi manc l`ar-|di- re per|
 C2 A,3/2 A,/ | B,3 B, | G,2 G,3/2 G,/ | !fermata!F,3 |] %25
w: chie- der mer-|cè, per|chie- der mer-|ce.|

